X: 1
T: Reel Ti-M\'e
C: Marcel Messervier
R: reel
Z: 2010 John Chambers <jc:trillian.mit.edu>
M: C|
L: 1/8
K: D
df \
| "D"afbf afde | "D"(3faf (3ege dBAG \
| "D"FAdA FAdf | "Em"e2[B2G2] [B2G2]ef \
| "(A7)"gfga gfed |
| "A7"cBce c3B \
|1,3 "A7"AB (3cBA gfga | "A7"ba^ga "D"f2 \
:|2,4 "A7"AB (3cBA gABc | "D"df"A7"ec "D"d2 :|
|: AF |\
"D"D2FA dAFA | "G"G2BG =cGBG | "A7"AAkeA AkfAA | "A7"kgAAg fecA |
"D"D2FA dAFA | "G"G2BG =cGBG | "A7"AAkeA AkfAA | gece "D"d2 :|


%%sep 1 1 500
